Simply-Purple-Circles/scalable/actions/mail-invitation.svg

<svg xmlns="http://www.w3.org/2000/svg" width="24" height="24"><path d="M12 1a3.5 3.5 0 1 0 0 7 3.5 3.5 0 0 0 0-7zM3.15 8.67A9.46 9.46 0 0 0 2.54 12a9.46 9.46 0 0 0 1.24 4.66l3.72-3.7-4.35-4.29zm17.82.35L17 12.97l3.38 3.39A9.46 9.46 0 0 0 21.46 12a9.46 9.46 0 0 0-.49-2.98zM12 9.75c-1.75 0-3.06.26-4.05.66-.35.14-.46.35-.74.51L11.36 15l.48.47h.76l.48-.47 3.97-3.9c-.33-.23-.53-.5-1-.7-.99-.39-2.3-.65-4.05-.65zm-3.58 4.07l-3.94 3.91A9.46 9.46 0 0 0 12 21.46a9.46 9.46 0 0 0 7.74-4.02l-3.68-3.61-2.9 2.9h-1.84l-2.9-2.9v-.01z" fill="#963996"/></svg>

<?xml version="1.0" encoding="UTF-8" standalone="no"?>
<svg
   xmlns:dc="http://purl.org/dc/elements/1.1/"
   xmlns:cc="http://creativecommons.org/ns#"
   xmlns:rdf="http://www.w3.org/1999/02/22-rdf-syntax-ns#"
   xmlns:svg="http://www.w3.org/2000/svg"
   xmlns="http://www.w3.org/2000/svg"
   xmlns:sodipodi="http://sodipodi.sourceforge.net/DTD/sodipodi-0.dtd"
   xmlns:inkscape="http://www.inkscape.org/namespaces/inkscape"
   width="24"
   height="24"
   version="1.1"
   id="svg4"
   sodipodi:docname="mail-invitation.svg"
   inkscape:version="0.92.4 (5da689c313, 2019-01-14)">
  <metadata
     id="metadata10">
    <rdf:RDF>
      <cc:Work
         rdf:about="">
        <dc:format>image/svg+xml</dc:format>
        <dc:type
           rdf:resource="http://purl.org/dc/dcmitype/StillImage" />
        <dc:title></dc:title>
      </cc:Work>
    </rdf:RDF>
  </metadata>
  <defs
     id="defs8" />
  <sodipodi:namedview
     pagecolor="#ffffff"
     bordercolor="#666666"
     borderopacity="1"
     objecttolerance="10"
     gridtolerance="10"
     guidetolerance="10"
     inkscape:pageopacity="0"
     inkscape:pageshadow="2"
     inkscape:window-width="1078"
     inkscape:window-height="480"
     id="namedview6"
     showgrid="false"
     inkscape:zoom="9.8333333"
     inkscape:cx="-0.81355932"
     inkscape:cy="12"
     inkscape:window-x="0"
     inkscape:window-y="28"
     inkscape:window-maximized="0"
     inkscape:current-layer="svg4" />
  <path
     d="m 12,1 a 3.5,3.5 0 1 0 0,7 3.5,3.5 0 0 0 0,-7 z M 3.15,8.67 A 9.46,9.46 0 0 0 2.54,12 9.46,9.46 0 0 0 3.78,16.66 L 7.5,12.96 Z M 20.97,9.02 17,12.97 20.38,16.36 A 9.46,9.46 0 0 0 21.46,12 9.46,9.46 0 0 0 20.97,9.02 Z M 12,9.75 c -1.75,0 -3.06,0.26 -4.05,0.66 -0.35,0.14 -0.46,0.35 -0.74,0.51 l 4.15,4.08 0.48,0.47 H 12.6 L 13.08,15 17.05,11.1 c -0.33,-0.23 -0.53,-0.5 -1,-0.7 C 15.06,10.01 13.75,9.75 12,9.75 Z m -3.58,4.07 -3.94,3.91 a 9.46,9.46 0 0 0 7.52,3.73 9.46,9.46 0 0 0 7.74,-4.02 l -3.68,-3.61 -2.9,2.9 h -1.84 l -2.9,-2.9 z"
     id="path2"
     inkscape:connector-curvature="0"
     style="fill:#963996" />
</svg>
